src/maasserver/static/assets/images/icons/warning-mono.svg

<?xml version="1.0" encoding="UTF-8" standalone="no"?>
<!-- Created with Inkscape (http://www.inkscape.org/) -->

<svg
   xmlns:dc="http://purl.org/dc/elements/1.1/"
   xmlns:cc="http://creativecommons.org/ns#"
   xmlns:rdf="http://www.w3.org/1999/02/22-rdf-syntax-ns#"
   xmlns:svg="http://www.w3.org/2000/svg"
   xmlns="http://www.w3.org/2000/svg"
   xmlns:sodipodi="http://sodipodi.sourceforge.net/DTD/sodipodi-0.dtd"
   xmlns:inkscape="http://www.inkscape.org/namespaces/inkscape"
   width="16.000017"
   height="16.000017"
   id="svg5918"
   version="1.1"
   inkscape:version="0.91+devel r"
   viewBox="0 0 16.000017 16.000017"
   sodipodi:docname="warning_mono.svg">
  <defs
     id="defs5920" />
  <sodipodi:namedview
     id="base"
     pagecolor="#dedede"
     bordercolor="#666666"
     borderopacity="1.0"
     inkscape:pageopacity="0"
     inkscape:pageshadow="2"
     inkscape:zoom="19.428903"
     inkscape:cx="-0.3490475"
     inkscape:cy="3.032316"
     inkscape:document-units="px"
     inkscape:current-layer="g6413"
     showgrid="true"
     fit-margin-top="0"
     fit-margin-left="0"
     fit-margin-right="0"
     fit-margin-bottom="0"
     inkscape:snap-bbox="true"
     inkscape:bbox-paths="true"
     inkscape:bbox-nodes="true"
     inkscape:snap-bbox-edge-midpoints="true"
     inkscape:snap-bbox-midpoints="true"
     inkscape:object-paths="true"
     inkscape:snap-intersection-paths="true"
     inkscape:object-nodes="true"
     inkscape:snap-smooth-nodes="true"
     inkscape:snap-midpoints="true"
     inkscape:snap-object-midpoints="true"
     inkscape:snap-center="true"
     inkscape:snap-global="true">
    <inkscape:grid
       type="xygrid"
       id="grid4137"
       originx="-0.00011142332px"
       originy="-8.9999724px" />
  </sodipodi:namedview>
  <metadata
     id="metadata5923">
    <rdf:RDF>
      <cc:Work
         rdf:about="">
        <dc:format>image/svg+xml</dc:format>
        <dc:type
           rdf:resource="http://purl.org/dc/dcmitype/StillImage" />
        <dc:title></dc:title>
      </cc:Work>
    </rdf:RDF>
  </metadata>
  <g
     inkscape:label="Layer 1"
     inkscape:groupmode="layer"
     id="layer1"
     transform="translate(-182.93849,-560.72008)">
    <g
       style="display:inline"
       transform="matrix(0.66666607,0,0,0.66666668,-633.06096,6.8119427)"
       id="g5687" />
    <g
       style="display:inline"
       id="g6413"
       transform="translate(-769.06151,364.35791)">
      <rect
         style="color:#000000;display:inline;overflow:visible;visibility:visible;opacity:1;fill:none;fill-opacity:1;fill-rule:nonzero;stroke:none;stroke-width:1.5;stroke-linecap:butt;stroke-linejoin:miter;stroke-miterlimit:4;stroke-dasharray:1.5, 1.5;stroke-dashoffset:0.60000002;stroke-opacity:1;marker:none;enable-background:accumulate"
         id="rect6415"
         width="16"
         height="16"
         x="952"
         y="196.36218" />
      <path
         style="color:#000000;font-style:normal;font-variant:normal;font-weight:normal;font-stretch:normal;font-size:medium;line-height:normal;font-family:sans-serif;font-variant-ligatures:normal;font-variant-position:normal;font-variant-caps:normal;font-variant-numeric:normal;font-variant-alternates:normal;font-feature-settings:normal;text-indent:0;text-align:start;text-decoration:none;text-decoration-line:none;text-decoration-style:solid;text-decoration-color:#000000;letter-spacing:normal;word-spacing:normal;text-transform:none;writing-mode:lr-tb;direction:ltr;text-orientation:mixed;dominant-baseline:auto;baseline-shift:baseline;text-anchor:start;white-space:normal;shape-padding:0;clip-rule:nonzero;display:inline;overflow:visible;visibility:visible;opacity:1;isolation:auto;mix-blend-mode:normal;color-interpolation:sRGB;color-interpolation-filters:linearRGB;solid-color:#000000;solid-opacity:1;fill:#ffffff;fill-opacity:1;fill-rule:nonzero;stroke:none;stroke-width:0.84847599;stroke-linecap:butt;stroke-linejoin:round;stroke-miterlimit:4;stroke-dasharray:none;stroke-dashoffset:0;stroke-opacity:1;marker:none;color-rendering:auto;image-rendering:auto;shape-rendering:auto;text-rendering:auto;enable-background:accumulate"
         d="M 8.0449219 -0.0234375 A 0.96734697 1.0339621 0 0 0 7.9472656 -0.021484375 A 0.96734697 1.0339621 0 0 0 7.1621094 0.4921875 L 0.15429688 13.470703 A 0.96734697 1.0339621 0 0 0 0.99023438 15.023438 L 15.009766 15.023438 A 0.96734697 1.0339621 0 0 0 15.845703 13.470703 L 8.8378906 0.4921875 A 0.96734697 1.0339621 0 0 0 8.0449219 -0.0234375 z M 7 5 L 9 5 L 9 10 L 7 10 L 7 5 z M 7 11 L 9 11 L 9 13 L 7 13 L 7 11 z "
         transform="translate(952,196.36217)"
         id="path4438" />
    </g>
  </g>
</svg>

<svg xmlns="http://www.w3.org/2000/svg" width="16" height="16" viewBox="0 0 16.000017 16.000017"><g color="#000"><path style="marker:none" overflow="visible" fill="none" d="M0 0h16v16H0z"/><path style="line-height:normal;font-variant-ligatures:normal;font-variant-position:normal;font-variant-caps:normal;font-variant-numeric:normal;font-variant-alternates:normal;font-feature-settings:normal;text-indent:0;text-align:start;text-decoration-line:none;text-decoration-style:solid;text-decoration-color:#000;text-transform:none;text-orientation:mixed;shape-padding:0;isolation:auto;mix-blend-mode:normal;marker:none" d="M8.045-.023a.967 1.034 0 0 0-.098.002.967 1.034 0 0 0-.785.513L.154 13.471a.967 1.034 0 0 0 .836 1.552h14.02a.967 1.034 0 0 0 .836-1.552L8.838.492a.967 1.034 0 0 0-.793-.515zM7 5h2v5H7V5zm0 6h2v2H7v-2z" font-weight="400" font-family="sans-serif" white-space="normal" overflow="visible" fill="#fff"/></g></svg>
